__todo__/grpc.svg

<svg height="208" preserveAspectRatio="xMidYMid" viewBox="0 0 512 208" width="512" xmlns="http://www.w3.org/2000/svg" xmlns:xlink="http://www.w3.org/1999/xlink"><linearGradient id="a" x1="100%" x2="0%" y1="0%" y2="100%"><stop offset="0" stop-color="#72c9c9"/><stop offset="1" stop-color="#02b0ad"/></linearGradient><linearGradient id="b" x1="100%" x2="-0%" y1="0%" y2="100%"><stop offset="0" stop-color="#03b6b4"/><stop offset="1" stop-color="#74cbca"/></linearGradient><path d="m56.6781387 179.867942c3.8012416 5.057428 8.7412645 9.147447 14.4191978 11.938162 6.1406763 3.04169 12.9165876 4.579685 19.7686831 4.487093 5.5402434.145253 11.0553424-.795415 16.2342014-2.768943 4.142056-1.627346 7.839809-4.212545 10.790517-7.543942 2.769042-3.245535 4.790547-7.060258 5.921318-11.173949 1.232874-4.445938 1.843247-9.041368 1.813677-13.654986v-16.043149h-.380779c-3.591082 5.691788-8.770865 10.206918-14.899484 12.987627-5.843514 2.544007-12.152287 3.844798-18.5255119 3.819734-6.2449718.046934-12.4395141-1.120598-18.238932-3.437628-5.4912018-2.180201-10.5154349-5.389189-14.8026307-9.454472-4.2540896-4.084311-7.6332499-8.991-9.9321048-14.421851-2.4462362-5.733338-3.6816152-11.910234-3.6286811-18.143406-.0527572-6.215069 1.1156749-12.379991 3.4389548-18.1447319 2.1959948-5.4539311 5.4033741-10.443488 9.4531455-14.7057774 4.049214-4.22735 8.9254464-7.5757233 14.324998-9.8365782 5.7776776-2.4021443 11.983518-3.6042212 18.2402587-3.5331546 2.8489617.0165179 5.6915308.2717056 8.4978803.7628854 3.0861872.5391421 6.0988662 1.4368012 8.9768392 2.6747426 6.83285 2.9614426 12.73918 7.7130932 17.095268 13.7531657h.380779v-14.8994839h12.606847v88.6220773c-.043059 5.207171-.65163 10.394259-1.815004 15.46999-1.217017 5.487819-3.629796 10.63955-7.066309 15.087883-3.910256 4.907591-8.914016 8.832723-14.611577 11.461856-6.240182 3.054195-14.389567 4.581293-24.4481563 4.581293-8.1708291.139294-16.2872752-1.353728-23.87367-4.391567-7.2580912-3.109451-13.7689098-7.73225-19.0973439-13.559459zm2.2913098-63.790489c-.0315272 4.551795.8453229 9.064145 2.5792161 13.27288 1.6530449 4.038806 4.0495357 7.731427 7.0649823 10.886043 2.997935 3.126632 6.5629907 5.654769 10.505264 7.449742 4.1067722 1.866546 8.5723053 2.81164 13.0831532 2.768942 8.9334049.032224 17.5416989-3.349301 24.0647229-9.453145 3.203734-3.023005 5.712933-6.705548 7.354216-10.79317 1.76895-4.493421 2.582287-9.306115 2.388163-14.131292.032038-4.526363-.744357-9.022086-2.292637-13.275533-1.47127-4.0425549-3.745423-7.7455563-6.68553-10.8860433-3.021922-3.1836425-6.660969-5.7180195-10.69499-7.4484153-4.466719-1.8984986-9.281037-2.8421104-14.1339449-2.7702691-4.5108567-.0413801-8.9762015.9041265-13.0831532 2.7702691-3.9410201 1.7965664-7.5057143 4.3239967-10.505264 7.4484153-3.0144875 3.155638-5.4112471 6.8479798-7.0663091 10.8860433-1.733101 4.209858-2.6094791 8.723002-2.5778893 13.275533zm130.6378265 45.838136h-13.750513v-135.2257524h41.636297c13.751396 0 24.60604 2.9922798 32.56393 8.9768395 7.957005 5.9863288 11.936392 15.0268527 11.938161 27.1215718.242027 8.7790201-2.94338 17.3073841-8.881313 23.7781435-5.921759 6.4312347-14.484651 10.1554423-25.688674 11.1726229l38.962881 64.1765747h-16.808688l-37.051023-62.8378767h-22.919732zm0-75.4433973h24.448156c5.25316.1105612 10.495026-.5328319 15.565516-1.9105305 3.708424-.9915361 7.182225-2.7117488 10.218684-5.0602522 2.449492-1.971316 4.355559-4.5349627 5.537885-7.4484152 1.161995-2.9494039 1.745761-6.0948049 1.719477-9.2647459.013982-3.1059805-.569789-6.1856403-1.719477-9.0710393-1.196053-2.932976-3.098412-5.5249063-5.537885-7.5452685-3.007233-2.3951381-6.49108-4.1207777-10.218684-5.0615789-5.082104-1.3084215-10.318733-1.9185878-15.565516-1.8136772h-24.448156zm100.460732-59.7823551h39.346313c13.750512 0 24.604714 2.9927221 32.562604 8.9781663 7.957005 5.9863287 11.936392 15.0268527 11.938161 27.1215718 0 12.0982571-3.979387 21.170181-11.938161 27.2157715-7.95789 6.0491286-18.812092 9.0732506-32.562604 9.0723661h-25.593147v62.8378767h-13.753166zm13.754493 59.7836818h22.155519c5.25315.1103599 10.494988-.5330297 15.565516-1.9105304 3.708273-.9919359 7.181999-2.7121111 10.218684-5.0602522 2.449238-1.9715615 4.355251-4.5351363 5.537885-7.4484152 1.162475-2.9492664 1.746258-6.0947614 1.719478-9.2647459.014477-3.106026-.569311-6.1857797-1.719478-9.0710394-1.196294-2.9328409-3.098613-5.5247166-5.537885-7.5452685-3.007475-2.3947576-6.491236-4.1203547-10.218684-5.0615789-5.082137-1.3082428-10.318741-1.9184063-15.565516-1.8136772h-22.156846zm208.1775 54.0507636c-2.419692 3.584939-5.273546 6.856799-8.496553 9.741052-3.489492 3.134797-7.374555 5.799032-11.556056 7.924721-4.464022 2.279392-9.173498 4.042107-14.037092 5.253959-5.217112 1.294845-10.574947 1.936163-15.950276 1.909203-9.588419.089723-19.098997-1.727786-27.978657-5.346831-16.934704-6.843415-30.349301-20.292507-37.149203-37.24473-3.638905-9.041673-5.45596-18.713093-5.346831-28.458943-.108989-9.7458374 1.70806-19.4172303 5.346831-28.4589431 6.799714-16.9517376 20.214497-30.4000577 37.149203-37.2420761 8.879436-3.619942 18.390107-5.4379197 27.978657-5.3481585 8.642397.0463006 17.197634 1.7309661 25.212369 4.9647256 8.548048 3.4209569 16.007001 9.0984001 21.581033 16.4265816l-12.031035 8.9768396c-1.616187-2.4077896-3.543391-4.5915081-5.731591-6.4944768-2.527237-2.2377241-5.316014-4.1613565-8.305501-5.7289378-3.194285-1.6823294-6.555493-3.0265458-10.028958-4.0107872-3.476693-1.0058982-7.07704-1.5203609-10.696317-1.5284244-8.022586-.1315839-15.976368 1.4983933-23.30051 4.7749994-6.64476 3.0147009-12.594258 7.3710108-17.47472 12.795247-4.830383 5.4398345-8.560581 11.7643654-10.984224 18.6236915-5.092078 14.3961306-5.092078 30.1033082 0 44.4994382 2.423216 6.859127 6.15347 13.183301 10.984224 18.622365 4.879068 5.426114 10.828888 9.783112 17.47472 12.796574 7.323453 3.27888 15.277648 4.909394 23.30051 4.776326 3.55515.00137 7.103159-.31835 10.600791-.955265 3.558409-.654281 7.022599-1.744694 10.314211-3.246575 3.469884-1.591526 6.687483-3.683546 9.549998-6.209224 3.215919-2.872679 6.012202-6.183021 8.306828-9.833925z" fill="#244b5a"/><path d="m10.3922252 10.3922252h50.1792861v50.1792861h-50.1792861z" fill="url(#a)" transform="matrix(-.70973059 -.7044732 .7044732 -.70973059 35.66841 85.66046)"/><path d="m117.729815 20.346218h29.432783v29.432783h-29.432783z" fill="url(#b)" transform="matrix(-.70973059 -.7044732 .7044732 -.70973059 201.746663 153.25242)"/><path d="m36.9094556 14.0272653-21.4072283 21.567766 21.5664392 21.4072282 18.2455657-.0676646-19.1331663-18.9792625 94.4770571-.3502639-8.280292 8.3360158 9.122783-.0331689 10.704278-10.783883-10.783883-10.7029507-9.122783.0331689 8.342649 8.2763117-94.477057.350264 18.9898766-19.1212256z" fill="#244b5a"/></svg>

<?xml version="1.0" encoding="UTF-8"?>
<svg width="512px" height="208px" viewBox="0 0 512 208" version="1.1" xmlns="http://www.w3.org/2000/svg" xmlns:xlink="http://www.w3.org/1999/xlink" preserveAspectRatio="xMidYMid">
    <title>gRPC</title>
    <defs>
        <linearGradient x1="100%" y1="0%" x2="0%" y2="100%" id="linearGradient-1">
            <stop stop-color="#72C9C9" offset="0%"></stop>
            <stop stop-color="#02B0AD" offset="100%"></stop>
        </linearGradient>
        <linearGradient x1="100%" y1="0%" x2="-8.8817842e-14%" y2="100%" id="linearGradient-2">
            <stop stop-color="#03B6B4" offset="0%"></stop>
            <stop stop-color="#74CBCA" offset="100%"></stop>
        </linearGradient>
    </defs>
    <g>
        <path d="M56.6781387,179.867942 C60.4793803,184.92537 65.4194032,189.015389 71.0973365,191.806104 C77.2380128,194.847794 84.0139241,196.385789 90.8660196,196.293197 C96.406263,196.43845 101.921362,195.497782 107.100221,193.524254 C111.242277,191.896908 114.94003,189.311709 117.890738,185.980312 C120.65978,182.734777 122.681285,178.920054 123.812056,174.806363 C125.04493,170.360425 125.655303,165.764995 125.625733,161.151377 L125.625733,145.108228 L125.244954,145.108228 C121.653872,150.800016 116.474089,155.315146 110.34547,158.095855 C104.501956,160.639862 98.193183,161.940653 91.8199581,161.915589 C85.5749863,161.962523 79.380444,160.794991 73.5810261,158.477961 C68.0898243,156.29776 63.0655912,153.088772 58.7783954,149.023489 C54.5243058,144.939178 51.1451455,140.032489 48.8462906,134.601638 C46.4000544,128.8683 45.1646754,122.691404 45.2176095,116.458232 C45.1648523,110.243163 46.3332844,104.078241 48.6565643,98.3135001 C50.8525591,92.859569 54.0599384,87.8700121 58.1097098,83.6077227 C62.1589238,79.3803727 67.0351562,76.0319994 72.4347078,73.7711445 C78.2123854,71.3690002 84.4182258,70.1669233 90.6749665,70.2379899 C93.5239282,70.2545078 96.3664973,70.5096955 99.1728468,71.0008753 C102.259034,71.5400174 105.271713,72.4376765 108.149686,73.6756179 C114.982536,76.6370605 120.888866,81.3887111 125.244954,87.4287836 L125.625733,87.4287836 L125.625733,72.5292997 L138.23258,72.5292997 L138.23258,161.151377 C138.189521,166.358548 137.58095,171.545636 136.417576,176.621367 C135.200559,182.109186 132.78778,187.260917 129.351267,191.70925 C125.441011,196.616841 120.437251,200.541973 114.73969,203.171106 C108.499508,206.225301 100.350123,207.752399 90.2915337,207.752399 C82.1207046,207.891693 74.0042585,206.398671 66.4178637,203.360832 C59.1597725,200.251381 52.6489539,195.628582 47.3205198,189.801373 L56.6781387,179.867942 Z M58.9694485,116.077453 C58.9379213,120.629248 59.8147714,125.141598 61.5486646,129.350333 C63.2017095,133.389139 65.5982003,137.08176 68.6136469,140.236376 C71.6115819,143.363008 75.1766376,145.891145 79.1189109,147.686118 C83.2256831,149.552664 87.6912162,150.497758 92.2020641,150.45506 C101.135469,150.487284 109.743763,147.105759 116.266787,141.001915 C119.470521,137.97891 121.97972,134.296367 123.621003,130.208745 C125.389953,125.715324 126.20329,120.90263 126.009166,116.077453 C126.041204,111.55109 125.264809,107.055367 123.716529,102.80192 C122.245259,98.7593651 119.971106,95.0563637 117.030999,91.9158767 C114.009077,88.7322342 110.37003,86.1978572 106.336009,84.4674614 C101.86929,82.5689628 97.054972,81.625351 92.2020641,81.6971923 C87.6912074,81.6558122 83.2258626,82.6013188 79.1189109,84.4674614 C75.1778908,86.2640278 71.6131966,88.7914581 68.6136469,91.9158767 C65.5991594,95.0715147 63.2023998,98.7638565 61.5473378,102.80192 C59.8142368,107.011778 58.9378587,111.524922 58.9694485,116.077453 L58.9694485,116.077453 Z M189.607275,161.915589 L175.856762,161.915589 L175.856762,26.6898366 L217.493059,26.6898366 C231.244455,26.6898366 242.099099,29.6821164 250.056989,35.6666761 C258.013994,41.6530049 261.993381,50.6935288 261.99515,62.7882479 C262.237177,71.567268 259.05177,80.095632 253.113837,86.5663914 C247.192078,92.9976261 238.629186,96.7218337 227.425163,97.7390143 L266.388044,161.915589 L249.579356,161.915589 L212.528333,99.0777123 L189.608601,99.0777123 L189.607275,161.915589 Z M189.607275,86.4721917 L214.055431,86.4721917 C219.308591,86.5827529 224.550457,85.9393598 229.620947,84.5616612 C233.329371,83.5701251 236.803172,81.8499124 239.839631,79.501409 C242.289123,77.530093 244.19519,74.9664463 245.377516,72.0529938 C246.539511,69.1035899 247.123277,65.9581889 247.096993,62.7882479 C247.110975,59.6822674 246.527204,56.6026076 245.377516,53.7172086 C244.181463,50.7842326 242.279104,48.1923023 239.839631,46.1719401 C236.832398,43.776802 233.348551,42.0511624 229.620947,41.1103612 C224.538843,39.8019397 219.302214,39.1917734 214.055431,39.296684 L189.607275,39.296684 L189.607275,86.4721917 Z M290.068007,26.6898366 L329.41432,26.6898366 C343.164832,26.6898366 354.019034,29.6825587 361.976924,35.6680029 C369.933929,41.6543316 373.913316,50.6948556 373.915085,62.7895747 C373.915085,74.8878318 369.935698,83.9597557 361.976924,90.0053462 C354.019034,96.0544748 343.164832,99.0785968 329.41432,99.0777123 L303.821173,99.0777123 L303.821173,161.915589 L290.068007,161.915589 L290.068007,26.6898366 Z M303.8225,86.4735184 L325.978019,86.4735184 C331.231169,86.5838783 336.473007,85.9404887 341.543535,84.562988 C345.251808,83.5710521 348.725534,81.8508769 351.762219,79.5027358 C354.211457,77.5311743 356.11747,74.9675995 357.300104,72.0543206 C358.462579,69.1050542 359.046362,65.9595592 359.019582,62.7895747 C359.034059,59.6835487 358.450271,56.603795 357.300104,53.7185353 C356.10381,50.7856944 354.201491,48.1938187 351.762219,46.1732668 C348.754744,43.7785092 345.270983,42.0529121 341.543535,41.1116879 C336.461398,39.8034451 331.224794,39.1932816 325.978019,39.2980107 L303.821173,39.2980107 L303.8225,86.4735184 Z M512,140.524282 C509.580308,144.109221 506.726454,147.381081 503.503447,150.265334 C500.013955,153.400131 496.128892,156.064366 491.947391,158.190055 C487.483369,160.469447 482.773893,162.232162 477.910299,163.444014 C472.693187,164.738859 467.335352,165.380177 461.960023,165.353217 C452.371604,165.44294 442.861026,163.625431 433.981366,160.006386 C417.046662,153.162971 403.632065,139.713879 396.832163,122.761656 C393.193258,113.719983 391.376203,104.048563 391.485332,94.302713 C391.376343,84.5568756 393.193392,74.8854827 396.832163,65.8437699 C403.631877,48.8920323 417.04666,35.4437122 433.981366,28.6016938 C442.860802,24.9817518 452.371473,23.1637741 461.960023,23.2535353 C470.60242,23.2998359 479.157657,24.9845014 487.172392,28.2182609 C495.72044,31.6392178 503.179393,37.316661 508.753425,44.6448425 L496.72239,53.6216821 C495.106203,51.2138925 493.178999,49.030174 490.990799,47.1272053 C488.463562,44.8894812 485.674785,42.9658488 482.685298,41.3982675 C479.491013,39.7159381 476.129805,38.3717217 472.65634,37.3874803 C469.179647,36.3815821 465.5793,35.8671194 461.960023,35.8590559 C453.937437,35.727472 445.983655,37.3574492 438.659513,40.6340553 C432.014753,43.6487562 426.065255,48.0050661 421.184793,53.4293023 C416.35441,58.8691368 412.624212,65.1936677 410.200569,72.0529938 C405.108491,86.4491244 405.108491,102.156302 410.200569,116.552432 C412.623785,123.411559 416.354039,129.735733 421.184793,135.174797 C426.063861,140.600911 432.013681,144.957909 438.659513,147.971371 C445.982966,151.250251 453.937161,152.880765 461.960023,152.747697 C465.515173,152.749067 469.063182,152.429347 472.560814,151.792432 C476.119223,151.138151 479.583413,150.047738 482.875025,148.545857 C486.344909,146.954331 489.562508,144.862311 492.425023,142.336633 C495.640942,139.463954 498.437225,136.153612 500.731851,132.502708 L512,140.524282 Z" fill="#244B5A"></path>
        <polygon fill="url(#linearGradient-1)" transform="translate(35.481868, 35.481868) rotate(-135.213000) translate(-35.481868, -35.481868) " points="10.3922252 10.3922252 60.5715113 10.3922252 60.5715113 60.5715113 10.3922252 60.5715113"></polygon>
        <polygon fill="url(#linearGradient-2)" transform="translate(132.446207, 35.062610) rotate(-135.213000) translate(-132.446207, -35.062610) " points="117.729815 20.346218 147.162598 20.346218 147.162598 49.779001 117.729815 49.779001"></polygon>
        <polygon fill="#244B5A" points="36.9094556 14.0272653 15.5022273 35.5950313 37.0686665 57.0022595 55.3142322 56.9345949 36.1810659 37.9553324 130.658123 37.6050685 122.377831 45.9410843 131.500614 45.9079154 142.204892 35.1240324 131.421009 24.4210817 122.298226 24.4542506 130.640875 32.7305623 36.163818 33.0808263 55.1536946 13.9596007"></polygon>
    </g>
</svg>
